X:1
T:Fenburn, SM
T:Fenburn, SM
T:AME  Hymn & Tune Book, 1898
T:Public Domain Courtesy of the Cyber Hymnal™
C:AME  Hymn & Tune Book, 1898
Z:Public Domain
Z:Courtesy of the Cyber Hymnal™
%%score ( 1 2 ) ( 3 4 )
L:1/8
Q:1/4=145
M:3/2
K:G
V:1 treble 
V:2 treble 
V:3 bass 
V:4 bass 
V:1
 [DB]4 | [DG]2 [FA]2 [GB]4 [Gc]4 | [GB]8 [FB]4 | [EG]2 [EG]2 [EG]4 [FA]4 | [GB]8 [GB]4 | %5
 [GB]2 [G^c]2 [Fd]4 [GB]4 | [EA]2 [EG]2 !fermata![CE]4 [CE]4 | D2 [DG]2 [DG]4 [DA]4 | %8
 !fermata![DG]8 |] %9
V:2
 x4 | x12 | x12 | x12 | x12 | x12 | x12 | D2 x10 | x8 |] %9
V:3
 G,4 | [B,,D]2 [D,D]2 [G,D]4 [C,E]4 | [G,D]8 [B,,^D]4 | [E,E]2 [E,B,]2 [E,B,]4 [D,D]4 | %4
 [G,D]8 [G,D]4 | [G,D]2 [E,A,]2 [D,A,]4 G,4 | [C,G,]2 [C,G,]2 !fermata![C,G,]4 [C,G,]4 | %7
 [B,,G,]2 [G,,B,]2 [D,B,]4 [D,C]4 | !fermata![G,,B,]8 |] %9
V:4
 G,4 | x12 | x12 | x12 | x12 | x8 G,4 | x12 | x12 | x8 |] %9

